X:353
T:Temperance
Z: id:dc-reel-330
M:C
L:1/8
K:G Major
D|G2GF GABc|dBge dBAc|BEED EFGA|BdAF GFED|!
G2GF GABc|dBge dBAc|BEED EFGA|BdAF G3:|!
A|Beed e3f|geaf gfed|Bdd^c d3e|fgaf gfed|!
Beed e3f|geaf gfed|BEED EFGA|BdAF G3:|!

